X:1
T:Dolce mio foco
T:Dolce mio foco
T:Andreas Pevernage
T:Source : Harmonia celeste---Anversa---P.Phalesio & G.Bellero---1583. Editor : André Vierendeels (28/11/13).
C:Andreas Pevernage
%%score [ 1 2 [ 3 4 ] ]
L:1/8
Q:1/4=104
M:4/4
K:C
V:1 treble nm="Canto" snm="C"
V:2 treble nm="Alto" snm="A"
V:3 treble-8 nm="Tenor 1" snm="T 1"
V:4 treble-8 nm="Tenor 2" snm="T 2"
V:1
 e8- | e4 d4 | d2 e4 d2 | ^c4 d4 | z2 d2 d2 d2 | e2 e2 d4 | G2 c2 d2 c2 | c2 c2 c4 | B4 z2 B2 | %9
w: Dol-|* ce|mio fo- co'ar-|den- te,|se mai sem-|pre mi di-|te, se mai sem-|pre mi di-|te, se|
 c2 c2 c2 A2 | d4 e2 e2 | f3 e d2 ^c2 | d4 d2 d2 | d3 e c2 d2 | B4 B2 B2 | ^c3 d e2 d2 | ^c4 c4 | %17
w: mai sem- pre mi|di- te, che|tut- ta sie- te|mi- a, che|tut- ta sie- te|mi- a, che|tut- ta sie- te|mi- a,|
 z4 d4 | d4 e4 | c6 c2 | B4 B2 BB | c4 c4 | d2 dd e2 ee | f4 e2 e2 | e3 e e2 d2 | d4 ^c2 e2 | %26
w: per-|che fie-|ra di|poi, si mi fug-|gi- te,|si mi fug- gi- te, fug-|gi- te voi|ra- ra leg- gia-|dri- a, voi|
 e3 e e2 d2 | d4 c4 | B4 c4 | d4 e4- | e2 f2 d4 | e4 z2 d2 | d2 g2 g2 f2 | f4 e4- | e2 c4 d2- | %35
w: ra- ra leg- gia-|dri- a,|sa- re-|te'og- n'hor|_ piu ri-|a, sa-|re- te'og- n'hor piu|ri- a,|_ sa- re-|
 d2 e4 f2- | f2 d2 e4 | A2 A2 B2 d2 | e4 d2 c2 | B2 c2 A4 | B2 B4 c2- | c2 d4 e2- | e2 c2 fe dc | %43
w: * te'og- n'hor|_ piu ri-|a, sa- re- te'og-|n'hor piu ri-||a, sa- re-|* te'og- n'hor|_ piu ri- * * *|
 B2 c4 B2 | c8 |] %45
w: |a,|
V:2
 c8- | c4 _B4 | A2 c4 B2 | A4 B2 B2 | B2 B2 A2 B2 | c4 B2 B2 | c2 G2 G2 G2 | A4 G4- | G4 z2 G2 | %9
w: Dol-|* ce|mio fo- co'ar-|den- te, se|mai sem- pre mi|di- te, se|mai sem- pre mi|di- te,|_ se|
 G2 G2 A2 c2- | c2 B2 c2 c2 | c3 c B2 A2 | B4 B2 B2 | B3 c A2 A2 |"^-natural" ^G4 G2 G2 | %15
w: mai sem- pre mi|_ di- te, che|tut- ta sie- te|mi- a, che|tut- ta sie- te|mi- a, che|
"^-natural" A3 B c2 A2 | A4 A4 | z4 B4 | B4 c4 | A6 E2 | G4 G2 GG | A4 G4 | B2 BB c4 | c6 c2 | %24
w: tut- ta sie- te|mi- a,|per|che fie-|ra di|poi, si mi fug-|gi- te,|si mi fug- gi-|te voi|
 c3 c c2 A2- |"^-natural" A2 G2 A2 c2 | c3 c c2 A2- | A2 G2 A4 | z2 G4 A2- | A2 B4 c2- | c2 c2 B4 | %31
w: ra- ra leg- gia|_ dri- a, voi|ra- ra leg- gia|_ dri- a,|sa- re-|* te'og- n'hor|_ piu ri-|
 c4 A4 | B4 c4 | c2 d2 B4 | c2 A2 G2 _B2 | A3 B cB AG | F2 A2 G4 | ^F4 G4- | G2 A4 F2 | G2 G4 ^F2 | %40
w: a, sa-|re- te'og-|n'hor piu ri-|a, sa- re- te'og-|n'hor _ _ _ _ _|_ piu ri-|a, sa-|* re- te'og-|n'hor piu ri-|
 G4 E4 | A4 B4 | cB AB c2 A2 | G8 | E8 |] %45
w: a, sa-|re- te'og-|n'hor _ _ _ _ piu|ri-|a.|
V:3
 g8- | g4 g4 | ^f2 g4 g2 | e4 g2 g2 | g2 g2 ^f2 g2 | cd ef g4 | e2 e2 d2 e2 | f2 f2 e4 | %8
w: Dol-|* ce|mio fo- co'ar-|den- te, se|mai sem- pre mi|di- * * * *|te, se mai sem-|pre mi di-|
 d2 d2 d2 d2 | e4 f4 | g4 c2 g2 | a3 g g2 e2 | g4 g2 g2 | g3 c f2 d2 | e4 e2 e2 | e3 g g2 f2 | %16
w: te, se mai sepre-|mi di-|te, te, che|tut- ta sie- te|mi- a, che|tut- ta sie- ta|mi- a, che|tut- ta sie- te|
 e4 e4 | z4 g4 | g4 g4 | f4 c4 | d8 | f2 ff e4 | g4 g2 gg | a4 g2 g2 | g3 g g2 f2 | d4 e2 a2 | %26
w: mi- a,|per|che fie-|ra di|poi,|si mi fug- gi-|te, si mi fug-|gi- te voi|ra- ra leg- gia-|dri- a, voi|
 g3 g g2 f2 | d4 e4 | z2 e4 f2- | f2 g4 a2- | a2 f2 g4 | c2 e4 f2- | f2 g4 a2- | a2 a2 ^g4 | %34
w: ra- ra leg- gia-|dri- a,|sa- re-|* te'og- n'hor|_ piu ri-|a, sa- re-|* te'og- n'hor|_ piu ri-|
 a2 e2 e2 g2 | f2 ed c4 | d2 d4 c2 | d4 z2 B2 | c4 d4 | e2 c2 d4 | G4 g4 | f2 a2 gfed | %42
w: a, sa- re- te'og-|n'hor _ _ _|piu ri- *|a, sa-|re- te'og-|n'hor piu ri-|a, sa-|re- te'og- n'hor _ _ _|
 c2 e2 agfe | d2 e2 d4 | c8 |] %45
w: _ piu ri- * * *||a.|
V:4
 c8- | c4 G4 | d2 c4 G2 | A4 G4- | G4 z4 | z4 z2 G2 | c2 c2 B2 c2 | FG AB c4 | G2 G2 G2 G2 | %9
w: Dol-|* ce|mio fo- co'ar-|den- te,|_|se|mai sem- pre mi|di- * * * *|te, se mai sem-|
 c2 c2 A4 | G4 z2 c2 | F3 C G2 A2 | G4 G4 | z8 | z4 z2 E2 |"^-natural" A3 G c2 d2 | A4 A4 | z4 G4 | %18
w: pre mi di-|te, che|tut- ta sie- te|mi- a,||che|tut- ta sie- te|mi- a,|per|
 G4 C4 | F4 A4 | G8 | F2 FF c4 | G4 c2 cc | f4 c2 c2 | c3 c c2 d2 | _B4 A2 A2 | c3 c c2 d2 | %27
w: che fie-|ra di|poi,|si mi fug- gi-|te, si mi fug-|gi- te voi|ra- ra leg- gia-|dri- a, voi|ra- ra leg- gia-|
 _B4 A4 | z8 | z8 | z8 | z2 c4 d2- | d2 e4 f2- | f2 d2 e4 | A2 A2 c2 G2 | d2 cB AG FE | D2 F2 E4 | %37
w: dri- a,||||sa- re-|* te'og- n'hor|_ piu ri-|a, se- re- te'og-|n'hor _ _ _ _ _ _|_ piu ri-|
 D2 D2 G4 | C4 z4 | z8 | z4 E4 | F4 G4 | A4 F4 | G8 | C8 |] %45
w: a, piu ri-|a,||sa-|re- te'og-|n'hor piu|ri-|a.|

